X:1
T: The Birsay Reel
C:Gareth Flett
P:Watch repeats
R:Reel
M:4/4
K:D
Q:232
L:1/8
|:AG FE DFA2|B2BA B2d2|AB dA Bd ef|gf ed e2f2|
|:A2A2 D2D2|G2GF G2B2|D2FD EF GA|BG FF G2A2|
AG FE DFA2|B2BA B2d2|cA Ad cd eg|f2d2 d3g:|
A2A2 D2D2|G2GF G2B2|AE EB AB cA|A2G2 F2z2:|
|:f2dB Bf dB|cA eA cA eA|f2dB BfdB|cA ec B2B2|
|:d2BF Fd BF|AE cE AE cE|d2BF Fd BF|AE cA F2F2|
f2dB Bf dB|cA eA cA eA|cA Ad cd eg|f2d2 d4:|
d2BF Fd BF|AE cE AE cE|AE EB AB cA|A2G2 F4:|
